X: 1976
T: Westlyne Waltz
B: australian traditional tunes wiki
M:3/4
L:1/8
R: Waltz
Q: 1/4=100
K:Dmaj
V:1 
|:"D"A4-A>F|A2z2.f2|d6-|d2F2G2|A4-A>G|A4B2|"Em" G6-|G2E2F2|
"Em"G4F2|G4A2|"A7"c6-|c2B2c2|d2c2B2|1 A2B3A|"D" F6-|F4G2:|2A2B2c2|"D" d3dd2|d4d2||
|:"Em"e2-e>d c>B|G2B2d2|"D"A4-A>d|F2A2d2|"A7"c4-c>B|1A2c2g2|"D"f2-f>g f>e|"Em"e4e2:|2g2e3c|"D"d3dd2|d6||
% abcbook-tune_id 6342d5be40992d31e63b0c37


% abcbook-boost 0
% abcbook-tablature 
% abcbook-transpose 
% abcbook-lastupdated 1665324491915
% abcbook-soundfonts 
% abcbook-repeats 1
% NFF Book 2020
% Bush Traditions recording played by Ingrid Wangel

